public/images/poses-lg/LungePose.svg

<svg width="800" height="800" fill="none" xmlns="http://www.w3.org/2000/svg"><g clip-path="url(#a)"><path d="M677.486 606.112s-35.058 9.726-52.26-.094c-17.204-9.819-58.984-41.729-130.254-29.456l-71.27 12.273s56.526 19.638 58.982 85.916c0 0 120.425 7.363 132.711 0 12.288-7.364 19.762-45.128 45.52-42.201 25.751 2.925 16.571-26.438 16.571-26.438Z" fill="#fff" stroke="#000" stroke-width="5" stroke-miterlimit="10"/><path d="M677.486 606.112s-35.058 9.726-52.26-.094c-17.204-9.819-58.984-41.729-130.254-29.456l-71.27 12.273s56.526 19.638 58.982 85.916c0 0 120.425 7.363 132.711 0 12.288-7.364 19.762-45.128 45.52-42.201 25.751 2.925 16.571-26.438 16.571-26.438Z" stroke="#000" stroke-width="5" stroke-miterlimit="10"/><path d="M590.821 608.473s31.948-12.274 36.862 14.729c4.011 22.03-.156 88.183-1.831 111.796a8.21 8.21 0 0 0 7.882 8.786c20.961.815 75.932 7.753 95.94 13.2 1.634.447 5.678-.037 7.372 0 6.66.155 21-2.731 34.991.989 5.635 1.5 10.665 4.818 14.001 9.593.819 1.178 1.39 2.239 1.39 2.921 0 2.453-191.694 0-191.694 0l-4.913-162.014Z" fill="#fff" stroke="#000" stroke-width="5" stroke-miterlimit="10"/><path d="M590.821 608.473s31.948-12.274 36.862 14.729c4.011 22.03-.156 88.183-1.831 111.796a8.21 8.21 0 0 0 7.882 8.786c20.961.815 75.932 7.753 95.94 13.2 1.634.447 5.678-.037 7.372 0 6.66.155 21-2.731 34.991.989 5.635 1.5 10.665 4.818 14.001 9.593.819 1.178 1.39 2.239 1.39 2.921 0 2.453-191.694 0-191.694 0l-4.913-162.014Z" stroke="#000" stroke-width="5" stroke-miterlimit="10"/><path d="M720.506 597.827c8.97-5.102 29.008-35.376 1.167-35.867-21.442-.377-13.057-12.102-24.471-31.654-7.761-13.29-30.681-5.694-35.925 25.363-4.771 28.263 12.836 26.215 31.575 28.042 18.735 1.827 27.654 14.116 27.654 14.116Z" fill="#100200" stroke="#000" stroke-width="5" stroke-miterlimit="10"/><path d="M685.775 608.208c7.807-4.264 15.38-.467 25.069-1.819 15.398-2.143 30.267 16.751 29.025 34.059-1.636 22.85-83.45 22.789-84.672 9.521-.725-7.858 6.103-22.063 19.289-32.273 4.238-3.285 11.289-9.488 11.289-9.488Z" fill="#fff" stroke="#000" stroke-width="5" stroke-miterlimit="10"/><path d="M685.775 608.208c7.807-4.264 15.38-.467 25.069-1.819 15.398-2.143 30.267 16.751 29.025 34.059-1.636 22.85-83.45 22.789-84.672 9.521-.725-7.858 6.103-22.063 19.289-32.273 4.238-3.285 11.289-9.488 11.289-9.488Z" stroke="#000" stroke-width="5" stroke-miterlimit="10"/><path d="M730.189 649.878c-14.349-.508-40.158-11.44-35.177-29.359 5.594-20.147-6.64-12.08-10.478-10.55-3.837 1.528-11.192 11.252-12.247 9.218-1.051-2.036 9.717-29.783 30.451-32.218 20.736-2.433 31.44 2.763 37.652 13.582 6.213 10.819 6.974 33.093.201 43.685-6.776 10.591-10.402 5.642-10.402 5.642Z" fill="#100200" stroke="#000" stroke-width="5" stroke-miterlimit="10"/><path d="M595.077 687.725c1.195 16.147 3.979 32.415 6.11 48.265 3.152 23.449 3.198 31.979 27.728 33.268 32.09 1.69 46.917 7.019 44.238 12.274-1.51 2.951-8.985 7.062-12.287 7.364 0 0-91.953 16.387-90.934-9.819v-36.82c0-12.274-4.923-32.025-4.923-32.025-14.047-44.94-17.195-85.803-17.195-85.803-64.235 70.176-203.068 110.054-251.788 122.308a111.015 111.015 0 0 1-33.437 3.19c-50.616-2.895-204.246-11.764-224.73-13.808-24.576-2.453-29.491-4.91-24.576-9.818 4.915-4.91 49.152-2.455 54.068-19.638 4.915-17.183 22.118-22.093 31.949-9.819 9.83 12.273 29.491 9.819 29.491 9.819 27.317-7.795 98.004-9.401 125.979-9.733 7.56-.089 14.902-2.325 21.326-6.307 53.947-33.453 92.311-36.738 92.311-36.738-7.372-56.458 55.296-65.05 55.296-65.05 27.035 7.364 16.943 8.991 16.943 8.991l118.372-44.58c14.57-5.487 30.289 4.694 31.226 20.213l4.833 114.266Z" fill="#fff" stroke="#000" stroke-width="5" stroke-miterlimit="10"/><path d="M595.077 687.725c1.195 16.147 3.979 32.415 6.11 48.265 3.152 23.449 3.198 31.979 27.728 33.268 32.09 1.69 46.917 7.019 44.238 12.274-1.51 2.951-8.985 7.062-12.287 7.364 0 0-91.953 16.387-90.934-9.819v-36.82c0-12.274-4.923-32.025-4.923-32.025-14.047-44.94-17.195-85.803-17.195-85.803-64.235 70.176-203.068 110.054-251.788 122.308a111.015 111.015 0 0 1-33.437 3.19c-50.616-2.895-204.246-11.764-224.73-13.808-24.576-2.453-29.491-4.91-24.576-9.818 4.915-4.91 49.152-2.455 54.068-19.638 4.915-17.183 22.118-22.093 31.949-9.819 9.83 12.273 29.491 9.819 29.491 9.819 27.317-7.795 98.004-9.401 125.979-9.733 7.56-.089 14.902-2.325 21.326-6.307 53.947-33.453 92.311-36.738 92.311-36.738-7.372-56.458 55.296-65.05 55.296-65.05 27.035 7.364 16.943 8.991 16.943 8.991l118.372-44.58c14.57-5.487 30.289 4.694 31.226 20.213l4.833 114.266ZM442.073 597.293l-14.686 7.499M442.073 597.293l-14.686 7.499" stroke="#000" stroke-width="5" stroke-miterlimit="10"/><path d="M368.407 653.885s2.457 4.91 7.373 9.819Z" fill="#fff"/><path d="M368.407 653.885s2.457 4.91 7.373 9.819" stroke="#000" stroke-width="5" stroke-miterlimit="10"/><path d="M368.407 653.885s2.457 4.91 7.373 9.819" stroke="#000" stroke-width="5" stroke-miterlimit="10"/><path d="M135.229 705.102s-16.2 17.569-3.331 37.18Z" fill="#fff"/><path d="M135.229 705.102s-16.2 17.569-3.331 37.18" stroke="#000" stroke-width="5" stroke-miterlimit="10"/><path d="M135.229 705.102s-16.2 17.569-3.331 37.18" stroke="#000" stroke-width="5" stroke-miterlimit="10"/><path d="M567.851 723.692s11.971 5.985 31.603 0Z" fill="#fff"/><path d="M567.851 723.692s11.971 5.985 31.603 0" stroke="#000" stroke-width="5" stroke-miterlimit="10"/><path d="M567.851 723.692s11.971 5.985 31.603 0" stroke="#000" stroke-width="5" stroke-miterlimit="10"/></g><defs><clipPath id="a"><path fill="#fff" d="M0 0h800v800H0z"/></clipPath></defs></svg>

<svg width="800" height="800" viewBox="0 0 800 800" fill="none" xmlns="http://www.w3.org/2000/svg">
<g clip-path="url(#clip0_298_12110)">
<path d="M677.486 606.112C677.486 606.112 642.428 615.838 625.226 606.018C608.022 596.199 566.242 564.289 494.972 576.562L423.702 588.835C423.702 588.835 480.228 608.473 482.684 674.751C482.684 674.751 603.109 682.114 615.395 674.751C627.683 667.387 635.157 629.623 660.915 632.55C686.666 635.475 677.486 606.112 677.486 606.112Z" fill="white" stroke="black" stroke-width="5" stroke-miterlimit="10"/>
<path d="M677.486 606.112C677.486 606.112 642.428 615.838 625.226 606.018C608.022 596.199 566.242 564.289 494.972 576.562L423.702 588.835C423.702 588.835 480.228 608.473 482.684 674.751C482.684 674.751 603.109 682.114 615.395 674.751C627.683 667.387 635.157 629.623 660.915 632.55C686.666 635.475 677.486 606.112 677.486 606.112Z" stroke="black" stroke-width="5" stroke-miterlimit="10"/>
<path d="M590.821 608.473C590.821 608.473 622.769 596.199 627.683 623.202C631.694 645.232 627.527 711.385 625.852 734.998C625.525 739.629 629.087 743.604 633.734 743.784C654.695 744.599 709.666 751.537 729.674 756.984C731.308 757.431 735.352 756.947 737.046 756.984C743.706 757.139 758.046 754.253 772.037 757.973C777.672 759.473 782.702 762.791 786.038 767.566C786.857 768.744 787.428 769.805 787.428 770.487C787.428 772.94 595.734 770.487 595.734 770.487L590.821 608.473Z" fill="white" stroke="black" stroke-width="5" stroke-miterlimit="10"/>
<path d="M590.821 608.473C590.821 608.473 622.769 596.199 627.683 623.202C631.694 645.232 627.527 711.385 625.852 734.998C625.525 739.629 629.087 743.604 633.734 743.784C654.695 744.599 709.666 751.537 729.674 756.984C731.308 757.431 735.352 756.947 737.046 756.984C743.706 757.139 758.046 754.253 772.037 757.973C777.672 759.473 782.702 762.791 786.038 767.566C786.857 768.744 787.428 769.805 787.428 770.487C787.428 772.94 595.734 770.487 595.734 770.487L590.821 608.473Z" stroke="black" stroke-width="5" stroke-miterlimit="10"/>
<path d="M720.506 597.827C729.476 592.725 749.514 562.451 721.673 561.96C700.231 561.583 708.616 549.858 697.202 530.306C689.441 517.016 666.521 524.612 661.277 555.669C656.506 583.932 674.113 581.884 692.852 583.711C711.587 585.538 720.506 597.827 720.506 597.827Z" fill="#100200" stroke="black" stroke-width="5" stroke-miterlimit="10"/>
<path d="M685.775 608.208C693.582 603.944 701.155 607.741 710.844 606.389C726.242 604.246 741.111 623.14 739.869 640.448C738.233 663.298 656.419 663.237 655.197 649.969C654.472 642.111 661.3 627.906 674.486 617.696C678.724 614.411 685.775 608.208 685.775 608.208Z" fill="white" stroke="black" stroke-width="5" stroke-miterlimit="10"/>
<path d="M685.775 608.208C693.582 603.944 701.155 607.741 710.844 606.389C726.242 604.246 741.111 623.14 739.869 640.448C738.233 663.298 656.419 663.237 655.197 649.969C654.472 642.111 661.3 627.906 674.486 617.696C678.724 614.411 685.775 608.208 685.775 608.208Z" stroke="black" stroke-width="5" stroke-miterlimit="10"/>
<path d="M730.189 649.878C715.84 649.37 690.031 638.438 695.012 620.519C700.606 600.372 688.372 608.439 684.534 609.969C680.697 611.497 673.342 621.221 672.287 619.187C671.236 617.151 682.004 589.404 702.738 586.969C723.474 584.536 734.178 589.732 740.39 600.551C746.603 611.37 747.364 633.644 740.591 644.236C733.815 654.827 730.189 649.878 730.189 649.878Z" fill="#100200" stroke="black" stroke-width="5" stroke-miterlimit="10"/>
<path d="M595.077 687.725C596.272 703.872 599.056 720.14 601.187 735.99C604.339 759.439 604.385 767.969 628.915 769.258C661.005 770.948 675.832 776.277 673.153 781.532C671.643 784.483 664.168 788.594 660.866 788.896C660.866 788.896 568.913 805.283 569.932 779.077V742.257C569.932 729.983 565.009 710.232 565.009 710.232C550.962 665.292 547.814 624.429 547.814 624.429C483.579 694.605 344.746 734.483 296.026 746.737C285.101 749.486 273.835 750.57 262.589 749.927C211.973 747.032 58.3429 738.163 37.8597 736.119C13.2833 733.666 8.3676 731.209 13.2833 726.301C18.198 721.391 62.4351 723.846 67.3508 706.663C72.2655 689.48 89.4694 684.57 99.2998 696.844C109.13 709.117 128.791 706.663 128.791 706.663C156.108 698.868 226.795 697.262 254.77 696.93C262.33 696.841 269.672 694.605 276.096 690.623C330.043 657.17 368.407 653.885 368.407 653.885C361.035 597.427 423.703 588.835 423.703 588.835C450.738 596.199 440.646 597.826 440.646 597.826L559.018 553.246C573.588 547.759 589.307 557.94 590.244 573.459L595.077 687.725Z" fill="white" stroke="black" stroke-width="5" stroke-miterlimit="10"/>
<path d="M595.077 687.725C596.272 703.872 599.056 720.14 601.187 735.99C604.339 759.439 604.385 767.969 628.915 769.258C661.005 770.948 675.832 776.277 673.153 781.532C671.643 784.483 664.168 788.594 660.866 788.896C660.866 788.896 568.913 805.283 569.932 779.077V742.257C569.932 729.983 565.009 710.232 565.009 710.232C550.962 665.292 547.814 624.429 547.814 624.429C483.579 694.605 344.746 734.483 296.026 746.737C285.101 749.486 273.835 750.57 262.589 749.927C211.973 747.032 58.3429 738.163 37.8597 736.119C13.2833 733.666 8.3676 731.209 13.2833 726.301C18.198 721.391 62.4351 723.846 67.3508 706.663C72.2655 689.48 89.4694 684.57 99.2998 696.844C109.13 709.117 128.791 706.663 128.791 706.663C156.108 698.868 226.795 697.262 254.77 696.93C262.33 696.841 269.672 694.605 276.096 690.623C330.043 657.17 368.407 653.885 368.407 653.885C361.035 597.427 423.703 588.835 423.703 588.835C450.738 596.199 440.646 597.826 440.646 597.826L559.018 553.246C573.588 547.759 589.307 557.94 590.244 573.459L595.077 687.725Z" stroke="black" stroke-width="5" stroke-miterlimit="10"/>
<path d="M442.073 597.293L427.387 604.792" stroke="black" stroke-width="5" stroke-miterlimit="10"/>
<path d="M442.073 597.293L427.387 604.792" stroke="black" stroke-width="5" stroke-miterlimit="10"/>
<path d="M368.407 653.885C368.407 653.885 370.864 658.795 375.78 663.704Z" fill="white"/>
<path d="M368.407 653.885C368.407 653.885 370.864 658.795 375.78 663.704" stroke="black" stroke-width="5" stroke-miterlimit="10"/>
<path d="M368.407 653.885C368.407 653.885 370.864 658.795 375.78 663.704" stroke="black" stroke-width="5" stroke-miterlimit="10"/>
<path d="M135.229 705.102C135.229 705.102 119.029 722.671 131.898 742.282Z" fill="white"/>
<path d="M135.229 705.102C135.229 705.102 119.029 722.671 131.898 742.282" stroke="black" stroke-width="5" stroke-miterlimit="10"/>
<path d="M135.229 705.102C135.229 705.102 119.029 722.671 131.898 742.282" stroke="black" stroke-width="5" stroke-miterlimit="10"/>
<path d="M567.851 723.692C567.851 723.692 579.822 729.677 599.454 723.692Z" fill="white"/>
<path d="M567.851 723.692C567.851 723.692 579.822 729.677 599.454 723.692" stroke="black" stroke-width="5" stroke-miterlimit="10"/>
<path d="M567.851 723.692C567.851 723.692 579.822 729.677 599.454 723.692" stroke="black" stroke-width="5" stroke-miterlimit="10"/>
</g>
<defs>
<clipPath id="clip0_298_12110">
<rect width="800" height="800" fill="white"/>
</clipPath>
</defs>
</svg>
